X: 1
T: Hunt The Fox
M: 9/8
L: 1/8
R: slip jig
K: Dmaj
d2B AFA AFA|d2B AGF E2d|d2B AFA AFA|d2B AFD E2D:|
fed faf g2e|fed faf e2g|fed fafa g2e|d2B AFD E2d:|
